X: 6643
T: Ceanngulla, The
R: slide
M: 12/8
K: Amajor
AFE ECE A2 F AFA|B2 c dcB cBA F2 E|
AFE ECE A2 F A2 B|1 cBc ecA B3 A2 B:|2 cBc ecA B3 A2 c||
d2 e fed c2 d ecA|B2 c dcB cBA F2 E|
AFE ECE A2 F A2 B|1 cBc ecA B3 A2 c:|2 cBc ecA B3 A3||

